X:6
T:Elizabeth Kelly's Delight
R:slip jig
S:Mike Long
O:Ireland
M:9/8
L:1/8
K:G
"Am" ~A3     ABA      AGE | "Am" c2 E "G" G2 E "Em" DEG | "Am" ~A3     ABA      AGE | "G" ~G2 G G2 E "Em" DEG :|
"Am" c2 A "G" BAG "Am" A3 | "Am" c2 A "G" BAG  "Em" DEG | "Am" c2 A "G" BAG "Am" A3 | "G" ~G2 G G2 E "Em" DEG :|
